X:1
T: Alexander Walker
C:Alexander Walker
R:Reel
I:speed 232
Q:232
K:D
M:4/4
L:1/8
|:F|A2 AF AD DF|EF GA B3d|A2 AF Dg fe|dB Ad FD DF|
A2 AF AD DF|EF GA B3d|A2 AF Dg fe|dB Ad FD Dg|
dd ad fa da|ge be ge eg|fd ad fa ef|dB Ad FD Dg|
dd ad fa da|ge be ge eg|fd ef dB AF|GB Ac dD D:|
